X:1
T:Title
%%score { ( 1 3 ) | 2 }
L:1/8
Q:1/4=108
M:4/4
K:Eb
V:1 bass nm="Church Organ"
V:3 bass 
V:2 bass 
V:1
 z4 [D,=B,G]4 | [E,CE]2 [F,=B,D]2[K:treble] [G,C]2 [CEG]2 | z2 .B2 z4 | %3
 [CEG]2 [G,DB]2 [CEG]2 [=A,_G]-[A,CG] | [G,=B,G]4 [B,DG]4 | [G,Cc]2 [F,F=B]2 [G,Ec]2 ed | %6
 [Ec]2 .[F,B]2 z4 | z2 C2[K:bass] [CE]2 [=B,D]2 | [E,C]4 z4 |] %9
V:2
 z4 G,,4 | C,2 D,2 E,2 CB, | A,G, F,2 C,2 =B,,2 | C,2 B,,2 C,2 D,2 | G,,4 G,2 F,2 | %5
 E,2 D,2 C,2 G,,2 | A,,2 B,,2 E,2 E,D, | C,B,, A,,2 G,,2 G,,2 | C,4 z4 |] %9
V:3
 x8 | x4[K:treble] x4 | [CEc]2 [CF]-[CFA] [CEG]2 [DFG]2 | z4 z2 .D2 | x8 | z4 z2 [B,E]2 | %6
 A,G,D-[B,DA] [B,EG]2 [B,EG]2 | [CEc]2 GF[K:bass] C,E,G,F, | x8 |] %9

